X:915
T:Johnny Lad
S:Kate Dunlay/Kohler's Repository
Z:Nigel Gatherer
M:4/4
L:1/8
K:G
B2 BG A2 Ad | BABd efgd  | B2 BG A2 Ad | BABd e2 e2 :|
efge  afdf  | efge f2 f2 | efge  afdf  | edBd e2 e2 :|
<end>
<start>
